T: Sad Is My Fate
M: 3/4
L: 1/8
K: Dmin
(3A=B^c |d2 cA GE | D2 C2 DE | F3 G AB | c2 A2 A>^c |
d2 cA GE | D2 C2 DE | F3 G E>D | D4 ||
A>G |A2 d2 d>e | f2 ed ce | d2 c2 A>G | F4 A>G |
A2 d2 d>e | f2 ed ^ce | (d6 | d4) de |
f2 fe dc | d2 A2 AB | c2 CA GF | E2 C2 DE |
F2 FG AB | c2 A2 AG | F3 G E>D | D4 |]
